svgs/light/calendar-day.svg

<svg xmlns="http://www.w3.org/2000/svg" viewBox="0 0 448 512"><!--! Font Awesome Pro 6.6.0 by @fontawesome - https://fontawesome.com License - https://fontawesome.com/license (Commercial License) Copyright 2024 Fonticons, Inc. --><path d="M128 16c0-8.8-7.2-16-16-16s-16 7.2-16 16l0 48L64 64C28.7 64 0 92.7 0 128l0 32 0 32L0 448c0 35.3 28.7 64 64 64l320 0c35.3 0 64-28.7 64-64l0-256 0-32 0-32c0-35.3-28.7-64-64-64l-32 0 0-48c0-8.8-7.2-16-16-16s-16 7.2-16 16l0 48L128 64l0-48zM32 192l384 0 0 256c0 17.7-14.3 32-32 32L64 480c-17.7 0-32-14.3-32-32l0-256zM64 96l320 0c17.7 0 32 14.3 32 32l0 32L32 160l0-32c0-17.7 14.3-32 32-32zm40 160l80 0c4.4 0 8 3.6 8 8l0 80c0 4.4-3.6 8-8 8l-80 0c-4.4 0-8-3.6-8-8l0-80c0-4.4 3.6-8 8-8zm-40 8l0 80c0 22.1 17.9 40 40 40l80 0c22.1 0 40-17.9 40-40l0-80c0-22.1-17.9-40-40-40l-80 0c-22.1 0-40 17.9-40 40z"/></svg>

<svg xmlns="http://www.w3.org/2000/svg" viewBox="0 0 448 512"><!--! Font Awesome Pro 6.5.2 by @fontawesome - https://fontawesome.com License - https://fontawesome.com/license (Commercial License) Copyright 2024 Fonticons, Inc. --><path d="M128 16c0-8.8-7.2-16-16-16s-16 7.2-16 16V64H64C28.7 64 0 92.7 0 128v32 32V448c0 35.3 28.7 64 64 64H384c35.3 0 64-28.7 64-64V192 160 128c0-35.3-28.7-64-64-64H352V16c0-8.8-7.2-16-16-16s-16 7.2-16 16V64H128V16zM32 192H416V448c0 17.7-14.3 32-32 32H64c-17.7 0-32-14.3-32-32V192zM64 96H384c17.7 0 32 14.3 32 32v32H32V128c0-17.7 14.3-32 32-32zm40 160h80c4.4 0 8 3.6 8 8v80c0 4.4-3.6 8-8 8H104c-4.4 0-8-3.6-8-8V264c0-4.4 3.6-8 8-8zm-40 8v80c0 22.1 17.9 40 40 40h80c22.1 0 40-17.9 40-40V264c0-22.1-17.9-40-40-40H104c-22.1 0-40 17.9-40 40z"/></svg>
